X:0235
T:Rosette. Quick Step.
M:6/8
L:1/8
Q:3/8=92
I: :: ::
Z:Jack Campin * www.campin.me.uk * 2009
K:G
D|G2G GBg|G2G G2G|A2A ABc|B2G G2
D|G2G GBg|G2G G2G|AcB AGF|G2G G2:|
d|g2g aga|b2g g2e|ded dcB|A2D D2
d|g2g aga|b2g g2e|dcB AGF|G3  G2:|

